images/51059570.svg

<?xml version="1.0" encoding="UTF-8"?>
<svg xmlns="http://www.w3.org/2000/svg" xmlns:xlink="http://www.w3.org/1999/xlink" width="300pt" height="300pt" viewBox="0 0 300 300" version="1.1">
<defs>
<g>
<symbol overflow="visible" id="glyph0-0">
<path style="stroke:none;" d="M 0.796875 2.828125 L 0.796875 -11.28125 L 8.796875 -11.28125 L 8.796875 2.828125 Z M 1.703125 1.9375 L 7.90625 1.9375 L 7.90625 -10.390625 L 1.703125 -10.390625 Z M 1.703125 1.9375 "/>
</symbol>
<symbol overflow="visible" id="glyph0-1">
<path style="stroke:none;" d="M 1.578125 -11.671875 L 3.703125 -11.671875 L 8.875 -1.90625 L 8.875 -11.671875 L 10.40625 -11.671875 L 10.40625 0 L 8.28125 0 L 3.109375 -9.765625 L 3.109375 0 L 1.578125 0 Z M 1.578125 -11.671875 "/>
</symbol>
<symbol overflow="visible" id="glyph0-2">
<path style="stroke:none;" d="M 1.578125 -11.671875 L 3.15625 -11.671875 L 3.15625 -6.890625 L 8.890625 -6.890625 L 8.890625 -11.671875 L 10.46875 -11.671875 L 10.46875 0 L 8.890625 0 L 8.890625 -5.5625 L 3.15625 -5.5625 L 3.15625 0 L 1.578125 0 Z M 1.578125 -11.671875 "/>
</symbol>
<symbol overflow="visible" id="glyph1-0">
<path style="stroke:none;" d="M 0.640625 2.296875 L 0.640625 -9.171875 L 7.140625 -9.171875 L 7.140625 2.296875 Z M 1.375 1.578125 L 6.421875 1.578125 L 6.421875 -8.4375 L 1.375 -8.4375 Z M 1.375 1.578125 "/>
</symbol>
<symbol overflow="visible" id="glyph1-1">
<path style="stroke:none;" d="M 2.5 -1.078125 L 6.96875 -1.078125 L 6.96875 0 L 0.953125 0 L 0.953125 -1.078125 C 1.441406 -1.578125 2.101562 -2.25 2.9375 -3.09375 C 3.78125 -3.945312 4.3125 -4.5 4.53125 -4.75 C 4.9375 -5.207031 5.21875 -5.597656 5.375 -5.921875 C 5.539062 -6.242188 5.625 -6.554688 5.625 -6.859375 C 5.625 -7.367188 5.445312 -7.78125 5.09375 -8.09375 C 4.75 -8.40625 4.289062 -8.5625 3.71875 -8.5625 C 3.3125 -8.5625 2.882812 -8.492188 2.4375 -8.359375 C 2 -8.222656 1.523438 -8.007812 1.015625 -7.71875 L 1.015625 -9.015625 C 1.535156 -9.222656 2.019531 -9.378906 2.46875 -9.484375 C 2.914062 -9.597656 3.320312 -9.65625 3.6875 -9.65625 C 4.675781 -9.65625 5.460938 -9.40625 6.046875 -8.90625 C 6.628906 -8.414062 6.921875 -7.757812 6.921875 -6.9375 C 6.921875 -6.550781 6.847656 -6.179688 6.703125 -5.828125 C 6.554688 -5.484375 6.289062 -5.078125 5.90625 -4.609375 C 5.800781 -4.484375 5.460938 -4.125 4.890625 -3.53125 C 4.328125 -2.945312 3.53125 -2.128906 2.5 -1.078125 Z M 2.5 -1.078125 "/>
</symbol>
</g>
</defs>
<g id="surface13881">
<rect x="0" y="0" width="300" height="300" style="fill:rgb(100%,100%,100%);fill-opacity:1;stroke:none;"/>
<path style="fill:none;stroke-width:1.2;stroke-linecap:butt;stroke-linejoin:miter;stroke:rgb(0%,0%,100%);stroke-opacity:1;stroke-miterlimit:10;" d="M 109.566406 132.378906 L 115.113281 150.679688 "/>
<path style="fill:none;stroke-width:1.2;stroke-linecap:butt;stroke-linejoin:miter;stroke:rgb(0%,0%,0%);stroke-opacity:1;stroke-miterlimit:10;" d="M 115.113281 150.679688 L 120.664062 168.984375 "/>
<path style="fill:none;stroke-width:1.2;stroke-linecap:butt;stroke-linejoin:miter;stroke:rgb(0%,0%,100%);stroke-opacity:1;stroke-miterlimit:10;" d="M 102.0625 138.648438 L 106.5 153.292969 "/>
<path style="fill:none;stroke-width:1.2;stroke-linecap:butt;stroke-linejoin:miter;stroke:rgb(0%,0%,0%);stroke-opacity:1;stroke-miterlimit:10;" d="M 106.5 153.292969 L 110.941406 167.933594 "/>
<path style="fill:none;stroke-width:1.2;stroke-linecap:butt;stroke-linejoin:miter;stroke:rgb(0%,0%,0%);stroke-opacity:1;stroke-miterlimit:10;" d="M 72.316406 123.683594 L 90.941406 128.03125 "/>
<path style="fill:none;stroke-width:1.2;stroke-linecap:butt;stroke-linejoin:miter;stroke:rgb(0%,0%,100%);stroke-opacity:1;stroke-miterlimit:10;" d="M 90.941406 128.03125 L 109.566406 132.378906 "/>
<path style=" stroke:none;fill-rule:nonzero;fill:rgb(100%,100%,100%);fill-opacity:1;" d="M 103.566406 122.878906 L 115.566406 122.878906 L 115.566406 141.878906 L 103.566406 141.878906 Z M 103.566406 122.878906 "/>
<g style="fill:rgb(0%,0%,100%);fill-opacity:1;">
  <use xlink:href="#glyph0-1" x="103.566406" y="137.730469"/>
</g>
<path style="fill:none;stroke-width:1.2;stroke-linecap:butt;stroke-linejoin:miter;stroke:rgb(0%,0%,0%);stroke-opacity:1;stroke-miterlimit:10;" d="M 120.664062 168.984375 L 139.289062 173.328125 "/>
<path style="fill:none;stroke-width:1.2;stroke-linecap:butt;stroke-linejoin:miter;stroke:rgb(0%,0%,100%);stroke-opacity:1;stroke-miterlimit:10;" d="M 139.289062 173.328125 L 157.914062 177.675781 "/>
<path style="fill:none;stroke-width:1.2;stroke-linecap:butt;stroke-linejoin:miter;stroke:rgb(0%,0%,0%);stroke-opacity:1;stroke-miterlimit:10;" d="M 120.664062 168.984375 L 94.511719 196.894531 "/>
<path style="fill:none;stroke-width:1.2;stroke-linecap:butt;stroke-linejoin:miter;stroke:rgb(0%,0%,100%);stroke-opacity:1;stroke-miterlimit:10;" d="M 157.914062 177.675781 L 172.375 165.164062 "/>
<path style="fill:none;stroke-width:1.2;stroke-linecap:butt;stroke-linejoin:miter;stroke:rgb(0%,0%,0%);stroke-opacity:1;stroke-miterlimit:10;" d="M 172.375 165.164062 L 186.839844 152.648438 "/>
<path style="fill:none;stroke-width:1.2;stroke-linecap:butt;stroke-linejoin:miter;stroke:rgb(0%,0%,0%);stroke-opacity:1;stroke-miterlimit:10;" d="M 172.773438 212.917969 L 165.34375 195.296875 "/>
<path style="fill:none;stroke-width:1.2;stroke-linecap:butt;stroke-linejoin:miter;stroke:rgb(0%,0%,100%);stroke-opacity:1;stroke-miterlimit:10;" d="M 165.34375 195.296875 L 157.914062 177.675781 "/>
<path style=" stroke:none;fill-rule:nonzero;fill:rgb(100%,100%,100%);fill-opacity:1;" d="M 151.914062 168.175781 L 163.914062 168.175781 L 163.914062 187.175781 L 151.914062 187.175781 Z M 151.914062 168.175781 "/>
<g style="fill:rgb(0%,0%,100%);fill-opacity:1;">
  <use xlink:href="#glyph0-1" x="151.914062" y="183.027344"/>
</g>
<path style="fill:none;stroke-width:1.2;stroke-linecap:butt;stroke-linejoin:miter;stroke:rgb(0%,0%,0%);stroke-opacity:1;stroke-miterlimit:10;" d="M 186.839844 152.648438 L 219.578125 172.425781 "/>
<path style="fill:none;stroke-width:1.2;stroke-linecap:butt;stroke-linejoin:miter;stroke:rgb(0%,0%,0%);stroke-opacity:1;stroke-miterlimit:10;" d="M 187.597656 114.40625 L 186.839844 152.648438 "/>
<path style="fill:none;stroke-width:1.2;stroke-linecap:butt;stroke-linejoin:miter;stroke:rgb(0%,0%,0%);stroke-opacity:1;stroke-miterlimit:10;" d="M 196.519531 118.410156 L 195.914062 149.003906 "/>
<path style="fill:none;stroke-width:1.2;stroke-linecap:butt;stroke-linejoin:miter;stroke:rgb(0%,0%,0%);stroke-opacity:1;stroke-miterlimit:10;" d="M 219.578125 172.425781 L 236.328125 163.195312 "/>
<path style="fill:none;stroke-width:1.2;stroke-linecap:butt;stroke-linejoin:miter;stroke:rgb(0%,0%,100%);stroke-opacity:1;stroke-miterlimit:10;" d="M 236.328125 163.195312 L 253.078125 153.960938 "/>
<path style="fill:none;stroke-width:1.2;stroke-linecap:butt;stroke-linejoin:miter;stroke:rgb(0%,0%,0%);stroke-opacity:1;stroke-miterlimit:10;" d="M 218.585938 162.699219 L 231.984375 155.3125 "/>
<path style="fill:none;stroke-width:1.2;stroke-linecap:butt;stroke-linejoin:miter;stroke:rgb(0%,0%,100%);stroke-opacity:1;stroke-miterlimit:10;" d="M 231.984375 155.3125 L 245.382812 147.925781 "/>
<path style="fill:none;stroke-width:1.2;stroke-linecap:butt;stroke-linejoin:miter;stroke:rgb(0%,0%,0%);stroke-opacity:1;stroke-miterlimit:10;" d="M 219.578125 172.425781 L 210.886719 209.675781 "/>
<path style="fill:none;stroke-width:1.2;stroke-linecap:butt;stroke-linejoin:miter;stroke:rgb(0%,0%,100%);stroke-opacity:1;stroke-miterlimit:10;" d="M 253.078125 153.960938 L 253.457031 134.839844 "/>
<path style="fill:none;stroke-width:1.2;stroke-linecap:butt;stroke-linejoin:miter;stroke:rgb(0%,0%,0%);stroke-opacity:1;stroke-miterlimit:10;" d="M 253.457031 134.839844 L 253.835938 115.71875 "/>
<path style=" stroke:none;fill-rule:nonzero;fill:rgb(100%,100%,100%);fill-opacity:1;" d="M 247.078125 144.460938 L 259.078125 144.460938 L 259.078125 163.460938 L 247.078125 163.460938 Z M 247.078125 144.460938 "/>
<g style="fill:rgb(0%,0%,100%);fill-opacity:1;">
  <use xlink:href="#glyph0-1" x="247.078125" y="159.3125"/>
</g>
<path style="fill:none;stroke-width:1.2;stroke-linecap:butt;stroke-linejoin:miter;stroke:rgb(0%,0%,0%);stroke-opacity:1;stroke-miterlimit:10;" d="M 253.835938 115.71875 L 221.09375 95.941406 "/>
<path style="fill:none;stroke-width:1.2;stroke-linecap:butt;stroke-linejoin:miter;stroke:rgb(0%,0%,0%);stroke-opacity:1;stroke-miterlimit:10;" d="M 245.90625 121.445312 L 219.714844 105.625 "/>
<path style="fill:none;stroke-width:1.2;stroke-linecap:butt;stroke-linejoin:miter;stroke:rgb(0%,0%,0%);stroke-opacity:1;stroke-miterlimit:10;" d="M 221.09375 95.941406 L 187.597656 114.40625 "/>
<path style="fill:none;stroke-width:1.2;stroke-linecap:butt;stroke-linejoin:miter;stroke:rgb(0%,0%,0%);stroke-opacity:1;stroke-miterlimit:10;" d="M 210.886719 209.675781 L 172.773438 212.917969 "/>
<path style="fill:none;stroke-width:1.2;stroke-linecap:butt;stroke-linejoin:miter;stroke:rgb(0%,0%,0%);stroke-opacity:1;stroke-miterlimit:10;" d="M 206.3125 201.03125 L 175.824219 203.628906 "/>
<path style="fill:none;stroke-width:1.2;stroke-linecap:butt;stroke-linejoin:miter;stroke:rgb(0%,0%,0%);stroke-opacity:1;stroke-miterlimit:10;" d="M 94.511719 196.894531 L 57.261719 188.203125 "/>
<path style="fill:none;stroke-width:1.2;stroke-linecap:butt;stroke-linejoin:miter;stroke:rgb(0%,0%,0%);stroke-opacity:1;stroke-miterlimit:10;" d="M 92.832031 187.261719 L 63.03125 180.308594 "/>
<path style="fill:none;stroke-width:1.2;stroke-linecap:butt;stroke-linejoin:miter;stroke:rgb(0%,0%,0%);stroke-opacity:1;stroke-miterlimit:10;" d="M 57.261719 188.203125 L 51.714844 169.898438 "/>
<path style="fill:none;stroke-width:1.2;stroke-linecap:butt;stroke-linejoin:miter;stroke:rgb(0%,0%,100%);stroke-opacity:1;stroke-miterlimit:10;" d="M 51.714844 169.898438 L 46.164062 151.597656 "/>
<path style="fill:none;stroke-width:1.2;stroke-linecap:butt;stroke-linejoin:miter;stroke:rgb(0%,0%,100%);stroke-opacity:1;stroke-miterlimit:10;" d="M 46.164062 151.597656 L 59.242188 137.640625 "/>
<path style="fill:none;stroke-width:1.2;stroke-linecap:butt;stroke-linejoin:miter;stroke:rgb(0%,0%,0%);stroke-opacity:1;stroke-miterlimit:10;" d="M 59.242188 137.640625 L 72.316406 123.683594 "/>
<path style="fill:none;stroke-width:1.2;stroke-linecap:butt;stroke-linejoin:miter;stroke:rgb(0%,0%,100%);stroke-opacity:1;stroke-miterlimit:10;" d="M 55.347656 154.960938 L 65.808594 143.796875 "/>
<path style="fill:none;stroke-width:1.2;stroke-linecap:butt;stroke-linejoin:miter;stroke:rgb(0%,0%,0%);stroke-opacity:1;stroke-miterlimit:10;" d="M 65.808594 143.796875 L 76.269531 132.628906 "/>
<path style=" stroke:none;fill-rule:nonzero;fill:rgb(100%,100%,100%);fill-opacity:1;" d="M 40.164062 142.097656 L 52.164062 142.097656 L 52.164062 161.097656 L 40.164062 161.097656 Z M 40.164062 142.097656 "/>
<g style="fill:rgb(0%,0%,100%);fill-opacity:1;">
  <use xlink:href="#glyph0-1" x="40.164062" y="156.949219"/>
</g>
<path style="fill:none;stroke-width:1.2;stroke-linecap:butt;stroke-linejoin:miter;stroke:rgb(0%,0%,0%);stroke-opacity:1;stroke-miterlimit:10;" d="M 72.316406 123.683594 L 66.769531 105.382812 "/>
<path style="fill:none;stroke-width:1.2;stroke-linecap:butt;stroke-linejoin:miter;stroke:rgb(0%,0%,100%);stroke-opacity:1;stroke-miterlimit:10;" d="M 66.769531 105.382812 L 61.21875 87.082031 "/>
<path style=" stroke:none;fill-rule:nonzero;fill:rgb(100%,100%,100%);fill-opacity:1;" d="M 28.21875 75.582031 L 61.21875 75.582031 L 61.21875 98.582031 L 28.21875 98.582031 Z M 28.21875 75.582031 "/>
<g style="fill:rgb(0%,0%,100%);fill-opacity:1;">
  <use xlink:href="#glyph0-2" x="28.21875" y="90.433594"/>
</g>
<g style="fill:rgb(0%,0%,100%);fill-opacity:1;">
  <use xlink:href="#glyph1-1" x="40.25" y="95.316406"/>
</g>
<g style="fill:rgb(0%,0%,100%);fill-opacity:1;">
  <use xlink:href="#glyph0-1" x="48.729492" y="90.433594"/>
</g>
</g>
</svg>

<svg xmlns="http://www.w3.org/2000/svg" xmlns:xlink="http://www.w3.org/1999/xlink" width="300pt" height="300pt" viewBox="0 0 300 300"><defs><symbol overflow="visible"><path d="M.797 2.828v-14.11h8V2.83zm.906-.89h6.203v-12.33H1.703zm0 0"/></symbol><symbol overflow="visible" id="a"><path d="M1.578-11.672h2.125l5.172 9.766v-9.766h1.53V0H8.282L3.11-9.766V0H1.577zm0 0"/></symbol><symbol overflow="visible" id="b"><path d="M1.578-11.672h1.578v4.78H8.89v-4.78h1.58V0H8.89v-5.563H3.157V0H1.578zm0 0"/></symbol><symbol overflow="visible"><path d="M.64 2.297v-11.47h6.5v11.47zm.735-.72h5.047V-8.436H1.375zm0 0"/></symbol><symbol overflow="visible" id="c"><path d="M2.5-1.078h4.47V0H.952v-1.078c.488-.5 1.15-1.172 1.985-2.016C3.78-3.944 4.312-4.5 4.53-4.75c.407-.457.69-.848.845-1.172.164-.32.25-.633.25-.937 0-.507-.18-.92-.53-1.234-.345-.312-.806-.47-1.376-.47-.408.002-.837.072-1.283.205-.437.137-.914.352-1.42.64v-1.296c.518-.207 1.003-.363 1.452-.468.444-.114.85-.172 1.217-.172.99 0 1.774.25 2.36.75.582.492.875 1.148.875 1.97 0 .385-.074.756-.22 1.108-.147.344-.413.75-.796 1.22-.105.124-.445.483-1.015 1.077-.562.585-1.36 1.4-2.39 2.452zm0 0"/></symbol></defs><g><path fill="#fff" d="M0 0h300v300H0z"/><path d="M109.566 132.38l5.547 18.3" stroke-width="1.2" stroke="#00f" stroke-miterlimit="10" fill="none"/><path d="M115.113 150.68l5.55 18.304" stroke-width="1.2" stroke="#000" stroke-miterlimit="10" fill="none"/><path d="M102.063 138.648l4.437 14.645" stroke-width="1.2" stroke="#00f" stroke-miterlimit="10" fill="none"/><path d="M106.5 153.293l4.44 14.64M72.316 123.684l18.625 4.347" stroke-width="1.2" stroke="#000" stroke-miterlimit="10" fill="none"/><path d="M90.94 128.03l18.626 4.35" stroke-width="1.2" stroke="#00f" stroke-miterlimit="10" fill="none"/><path d="M103.566 122.88h12v19h-12zm0 0" fill="#fff"/><use xlink:href="#a" x="103.566" y="137.73" fill="#00f"/><path d="M120.664 168.984l18.625 4.344" stroke-width="1.2" stroke="#000" stroke-miterlimit="10" fill="none"/><path d="M139.29 173.328l18.624 4.348" stroke-width="1.2" stroke="#00f" stroke-miterlimit="10" fill="none"/><path d="M120.664 168.984l-26.152 27.91" stroke-width="1.2" stroke="#000" stroke-miterlimit="10" fill="none"/><path d="M157.914 177.676l14.46-12.512" stroke-width="1.2" stroke="#00f" stroke-miterlimit="10" fill="none"/><path d="M172.375 165.164l14.465-12.516M172.773 212.918l-7.43-17.62" stroke-width="1.2" stroke="#000" stroke-miterlimit="10" fill="none"/><path d="M165.344 195.297l-7.43-17.62" stroke-width="1.2" stroke="#00f" stroke-miterlimit="10" fill="none"/><path d="M151.914 168.176h12v19h-12zm0 0" fill="#fff"/><use xlink:href="#a" x="151.914" y="183.027" fill="#00f"/><path d="M186.84 152.648l32.738 19.778M187.598 114.406l-.758 38.242M196.52 118.41l-.606 30.594M219.578 172.426l16.75-9.23" stroke-width="1.2" stroke="#000" stroke-miterlimit="10" fill="none"/><path d="M236.328 163.195l16.75-9.234" stroke-width="1.2" stroke="#00f" stroke-miterlimit="10" fill="none"/><path d="M218.586 162.7l13.398-7.387" stroke-width="1.2" stroke="#000" stroke-miterlimit="10" fill="none"/><path d="M231.984 155.313l13.4-7.387" stroke-width="1.2" stroke="#00f" stroke-miterlimit="10" fill="none"/><path d="M219.578 172.426l-8.69 37.25" stroke-width="1.2" stroke="#000" stroke-miterlimit="10" fill="none"/><path d="M253.078 153.96l.38-19.12" stroke-width="1.2" stroke="#00f" stroke-miterlimit="10" fill="none"/><path d="M253.457 134.84l.38-19.12" stroke-width="1.2" stroke="#000" stroke-miterlimit="10" fill="none"/><path d="M247.078 144.46h12v19h-12zm0 0" fill="#fff"/><use xlink:href="#a" x="247.078" y="159.313" fill="#00f"/><path d="M253.836 115.72l-32.742-19.78M245.906 121.445l-26.19-15.82M221.094 95.94l-33.496 18.466M210.887 209.676l-38.114 3.242M206.313 201.03l-30.49 2.6M94.512 196.895l-37.25-8.692M92.832 187.262l-29.8-6.953M57.262 188.203l-5.547-18.305" stroke-width="1.2" stroke="#000" stroke-miterlimit="10" fill="none"/><path d="M51.715 169.898l-5.55-18.3M46.164 151.598l13.078-13.957" stroke-width="1.2" stroke="#00f" stroke-miterlimit="10" fill="none"/><path d="M59.242 137.64l13.074-13.956" stroke-width="1.2" stroke="#000" stroke-miterlimit="10" fill="none"/><path d="M55.348 154.96l10.46-11.163" stroke-width="1.2" stroke="#00f" stroke-miterlimit="10" fill="none"/><path d="M65.81 143.797l10.46-11.168" stroke-width="1.2" stroke="#000" stroke-miterlimit="10" fill="none"/><path d="M40.164 142.098h12v19h-12zm0 0" fill="#fff"/><use xlink:href="#a" x="40.164" y="156.949" fill="#00f"/><path d="M72.316 123.684l-5.546-18.3" stroke-width="1.2" stroke="#000" stroke-miterlimit="10" fill="none"/><path d="M66.77 105.383l-5.55-18.3" stroke-width="1.2" stroke="#00f" stroke-miterlimit="10" fill="none"/><path d="M28.22 75.582h33v23h-33zm0 0" fill="#fff"/><use xlink:href="#b" x="28.219" y="90.434" fill="#00f"/><use xlink:href="#c" x="40.25" y="95.316" fill="#00f"/><use xlink:href="#a" x="48.729" y="90.434" fill="#00f"/></g></svg>
